X:84
M:6/8
L:1/8
K:G
|: a3 afc | B3 B2d | e3 ecA | F3 F2G | ADA B2c | def g2c | BdB cAF | G3 [G,3G3] :|

